brandFactory_export/2.Regular/Tiempo _2Regular.svg

<?xml version="1.0" encoding="UTF-8"?>
<svg width="24px" height="24px" viewBox="0 0 24 24" version="1.1" xmlns="http://www.w3.org/2000/svg" xmlns:xlink="http://www.w3.org/1999/xlink">
    <title>2.Regular/Tiempo _2Regular</title>
    <g id="Symbols" stroke="none" stroke-width="1" fill="none" fill-rule="evenodd">
        <g id="2.Regular/Tiempo-_2Regular" fill="#5CB615" fill-rule="nonzero">
            <path d="M11.8084034,22.1478992 C18.7663866,22.1478992 22.1478992,18.7663866 22.1478992,11.8151261 C22.1478992,4.85714286 18.7663866,1.47563025 11.8084034,1.47563025 C4.85714286,1.47563025 1.47563025,4.85714286 1.47563025,11.8151261 C1.47563025,18.7663866 4.85714286,22.1478992 11.8084034,22.1478992 Z M11.8084034,0 C19.2705882,0 23.6235294,3.76806723 23.6235294,11.8151261 C23.6235294,19.8621849 19.2705882,23.6235294 11.8084034,23.6235294 C4.34621849,23.6235294 0,19.8621849 0,11.8151261 C0,3.76806723 4.34621849,0 11.8084034,0 Z M12.5512605,11.8319328 L15.9697479,15.2537815 C16.2689076,15.5327731 16.2857143,16 16.0067227,16.2957983 C15.7277311,16.594958 15.2605042,16.6117647 14.9647059,16.3327731 L14.9277311,16.2957983 L11.2907563,12.6588235 C11.1529412,12.5210084 11.0756303,12.3327731 11.0756303,12.1378151 L11.0756303,7.21680672 C11.0756303,6.81008403 11.405042,6.47731092 11.8151261,6.47731092 C12.2252101,6.47731092 12.5546218,6.80672269 12.5546218,7.21680672 L12.5512605,11.8319328 Z" id="Tiempo-_2Regular"></path>
        </g>
    </g>
</svg>

<svg width="24" height="24" viewBox="0 0 24 24" xmlns="http://www.w3.org/2000/svg"><path d="M11.808 22.148c6.958 0 10.34-3.382 10.34-10.333 0-6.958-3.382-10.34-10.34-10.34-6.95 0-10.332 3.382-10.332 10.34 0 6.951 3.381 10.333 10.332 10.333zm0-22.148c7.463 0 11.816 3.768 11.816 11.815S19.27 23.624 11.808 23.624C4.346 23.624 0 19.862 0 11.815 0 3.768 4.346 0 11.808 0zm.743 11.832l3.419 3.422c.299.279.316.746.037 1.042a.735.735 0 01-1.042.037l-.037-.037-3.637-3.637a.738.738 0 01-.215-.521V7.217a.74.74 0 011.479 0l-.004 4.615z" fill="#5CB615" fill-rule="nonzero"/></svg>
